public/logo/em-logo.svg

<svg xmlns="http://www.w3.org/2000/svg" xmlns:xlink="http://www.w3.org/1999/xlink" width="109" height="41" aria-labelledby="title" role="img" version="1.1" viewBox="462 369 109 41"><title>En Marche Logo</title><polygon id="E" fill="#000" fill-rule="evenodd" stroke="none" points="468.671 369.536 463 408.635 492.31 408.635 493.298 401.638 474.058 401.638 475.385 391.991 489.235 391.991 490.222 384.994 476.485 384.994 477.697 376.504 493.524 376.504 494.511 369.536"/><polygon id="M" fill="#000" fill-rule="evenodd" stroke="none" points="538.969 369.536 525.569 394.36 519.391 369.536 508.869 369.536 495.978 408.635 505.822 408.635 514.313 382.822 520.774 408.635 526.782 408.635 540.351 383.612 541.451 408.635 551.043 408.635 549.209 369.536"/><path id="!" fill="#000" fill-rule="evenodd" stroke="none" d="M570.3975,373.2315 C570.3975,374.1905 570.2895,375.1775 570.0735,376.1935 C569.8565,377.2095 569.5415,378.4505 569.1275,379.9175 L564.6705,395.5175 L558.7185,395.5175 L559.2265,377.3775 C559.4145,374.9155 559.6685,373.2215 559.9885,372.3005 C560.2885,371.4725 560.8765,370.7155 561.7515,370.0295 C562.6265,369.3425 563.8525,369.0005 565.4325,369.0005 C567.2005,369.0005 568.4695,369.4375 569.2415,370.3115 C570.0115,371.1865 570.3975,372.1595 570.3975,373.2315 M566.4485,403.2745 C566.4485,404.3285 566.1845,405.3055 565.6585,406.2095 C565.1315,407.1115 564.4175,407.8265 563.5135,408.3525 C562.6115,408.8785 561.6335,409.1425 560.5805,409.1425 C559.5085,409.1425 558.5205,408.8785 557.6185,408.3525 C556.7155,407.8265 556.0015,407.1115 555.4745,406.2095 C554.9475,405.3055 554.6845,404.3285 554.6845,403.2745 C554.6845,402.2035 554.9475,401.2155 555.4745,400.3125 C556.0015,399.4105 556.7155,398.6955 557.6185,398.1685 C558.5205,397.6425 559.5085,397.3785 560.5805,397.3785 C561.6335,397.3785 562.6115,397.6425 563.5135,398.1685 C564.4175,398.6955 565.1315,399.4105 565.6585,400.3125 C566.1845,401.2155 566.4485,402.2035 566.4485,403.2745"/></svg>

<svg aria-labelledby="title" viewBox="462 369 109 41"><path fill-rule="evenodd" d="M468.671 369.536L463 408.635h29.31l.988-6.997h-19.24l1.327-9.647h13.85l.987-6.997h-13.737l1.212-8.49h15.827l.987-6.968zm70.298 0l-13.4 24.824-6.178-24.824h-10.522l-12.891 39.099h9.844l8.491-25.813 6.461 25.813h6.008l13.569-25.023 1.1 25.023h9.592l-1.834-39.099zm31.429 3.695c0 .96-.109 1.947-.325 2.962a61.055 61.055 0 01-.945 3.725l-4.458 15.6h-5.952l.509-18.14c.188-2.462.442-4.156.762-5.077.3-.828.887-1.585 1.762-2.272.875-.687 2.101-1.029 3.682-1.029 1.768 0 3.037.438 3.808 1.312.77.875 1.157 1.847 1.157 2.92m-3.95 30.042a5.733 5.733 0 01-.79 2.935 5.855 5.855 0 01-2.144 2.144c-.903.525-1.88.79-2.933.79a5.778 5.778 0 01-2.962-.79 5.86 5.86 0 01-2.144-2.144 5.723 5.723 0 01-.79-2.935c0-1.07.263-2.058.79-2.962a5.87 5.87 0 012.144-2.144 5.778 5.778 0 012.962-.79c1.053 0 2.03.264 2.933.79a5.865 5.865 0 012.144 2.144c.526.904.79 1.892.79 2.962"/></svg>
